X:22
L:1/8
M:2/2
K:Amin
 cB | A^GAB AGEG | A^GAB cBcd | e^fge dedc | B2 G2 G2 cB | A^GAB AGEG | AGFG cBcd | e^fge dedB | 
 c2 A2 A2 :| | eg | agab ageg | agab age^f | gage dedc | B2 G2 G2 eg | agab ageg | agab aged | 
 cBcd edcB | c2 A2 A2 eg | agab ageg | agab age^f | gage dedc | B2 G2 G2 cB | A^GAB cBcd | 
 dgdB cBAG | AcBd cedB | C2 A2 A2 ||

